X: 21341
M: 2/4
L: 1/16
K: Dmix
[|\
"^8va _ _ _"D2EF GABc | d2g2 B4 | dcA2 dcA2 | d2g2 d4 |\
[| "loco."\
a4 g2e2 | f2d'2 a4 | baa2 baa2 | f2a2d'2f'2 |\
a4 g2e2 | f2d'2 a2zf | edef gab^c' | d'2d'2d'2z2 |
f2ff f2e2 | d2^c2 B4 | e2ee e2d2 | ^c2B2 A2(3(Ace) |\
a2aa a2g2 | f2e2d2B2 | A2(3(FAd) f2(e2 | d2)f2d2z2 |]"<D.C."y


